static/img/components/navbar-btn-examples.svg

<svg height="252" viewBox="0 0 555 252" width="555" xmlns="http://www.w3.org/2000/svg"><g transform="translate(-506 -672)"><g fill="#f1f1f6" stroke="#cbcdd6"><path d="m506 672h555v252h-555z" stroke="none"/><path d="m506.5 672.5h554v251h-554z" fill="none"/></g><path d="m631 832h383v56h-383z" fill="#004f83"/><path d="m631 770h383v56h-383z" fill="#fff"/><path d="m631 708h383v56h-383z" fill="#fff"/><rect fill="#d7d7da" height="48" opacity="0" rx="2" width="48" x="769" y="836"/><g transform="translate(779 846)"><path d="m0 0h28v28h-28z" fill="none"/><path d="m11.385 20.5a1.852 1.852 0 0 0 1.846-1.846h-3.693a1.846 1.846 0 0 0 1.847 1.846zm5.538-5.538v-4.616c0-2.834-1.514-5.206-4.154-5.834v-.627a1.385 1.385 0 1 0 -2.769 0v.628c-2.649.627-4.154 2.987-4.154 5.833v4.615l-1.846 1.847v.923h14.769v-.923z" fill="#fff" transform="translate(3 2.5)"/></g><rect fill="#d7d7da" height="48" opacity="0" rx="2" width="48" x="769" y="774"/><g transform="translate(779 784)"><path d="m0 0h28v28h-28z" fill="none"/><path d="m11.385 20.5a1.852 1.852 0 0 0 1.846-1.846h-3.693a1.846 1.846 0 0 0 1.847 1.846zm5.538-5.538v-4.616c0-2.834-1.514-5.206-4.154-5.834v-.627a1.385 1.385 0 1 0 -2.769 0v.628c-2.649.627-4.154 2.987-4.154 5.833v4.615l-1.846 1.847v.923h14.769v-.923z" fill="#6a6e79" transform="translate(3 2.5)"/></g><rect fill="#d7d7da" height="48" opacity="0" rx="2" width="48" x="769" y="712"/><g transform="translate(779 722)"><path d="m0 0h28v28h-28z" fill="none"/><path d="m11.385 20.5a1.852 1.852 0 0 0 1.846-1.846h-3.693a1.846 1.846 0 0 0 1.847 1.846zm5.538-5.538v-4.616c0-2.834-1.514-5.206-4.154-5.834v-.627a1.385 1.385 0 1 0 -2.769 0v.628c-2.649.627-4.154 2.987-4.154 5.833v4.615l-1.846 1.847v.923h14.769v-.923z" fill="#363545" transform="translate(3 2.5)"/></g><rect fill="#d7d7da" height="48" opacity="0" rx="2" width="48" x="824" y="836"/><path d="m836 848h24v24h-24z" fill="#252a2e" opacity="0"/><path d="m12 2a10 10 0 1 0 10 10 10 10 0 0 0 -10-10zm1 17h-2v-2h2zm2.07-7.75-.9.92a3.4 3.4 0 0 0 -1.17 2.83h-2v-.5a4.025 4.025 0 0 1 1.17-2.83l1.24-1.26a1.955 1.955 0 0 0 .59-1.41 2 2 0 1 0 -4 0h-2a4 4 0 1 1 8 0 3.182 3.182 0 0 1 -.93 2.25z" fill="#fff" transform="translate(835.667 848)"/><rect fill="#d7d7da" height="48" opacity="0" rx="2" width="48" x="822.872" y="774"/><path d="m834.872 786h24v24h-24z" fill="#252a2e" opacity="0"/><path d="m12 2a10 10 0 1 0 10 10 10 10 0 0 0 -10-10zm1 17h-2v-2h2zm2.07-7.75-.9.92a3.4 3.4 0 0 0 -1.17 2.83h-2v-.5a4.025 4.025 0 0 1 1.17-2.83l1.24-1.26a1.955 1.955 0 0 0 .59-1.41 2 2 0 1 0 -4 0h-2a4 4 0 1 1 8 0 3.182 3.182 0 0 1 -.93 2.25z" fill="#6a6e79" transform="translate(834.539 786)"/><rect fill="#d7d7da" height="48" opacity="0" rx="2" width="48" x="824" y="712"/><path d="m836 724h24v24h-24z" fill="#363545" opacity="0"/><path d="m12 2a10 10 0 1 0 10 10 10 10 0 0 0 -10-10zm1 17h-2v-2h2zm2.07-7.75-.9.92a3.4 3.4 0 0 0 -1.17 2.83h-2v-.5a4.025 4.025 0 0 1 1.17-2.83l1.24-1.26a1.955 1.955 0 0 0 .59-1.41 2 2 0 1 0 -4 0h-2a4 4 0 1 1 8 0 3.182 3.182 0 0 1 -.93 2.25z" fill="#363545" transform="translate(835.667 724)"/><rect fill="#d7d7da" height="48" opacity="0" rx="2" width="48" x="879" y="836"/><g transform="translate(891 848)"><path d="m0 0h24v24h-24z" fill="none"/><path d="m5 10h5v-5h-5zm7.5 15h5v-5h-5zm-7.5 0h5v-5h-5zm0-7.5h5v-5h-5zm7.5 0h5v-5h-5zm7.5-12.5v5h5v-5zm-7.5 5h5v-5h-5zm7.5 7.5h5v-5h-5zm0 7.5h5v-5h-5z" fill="#fff" transform="translate(-3 -3)"/></g><rect fill="#d7d7da" height="48" opacity="0" rx="2" width="48" x="879" y="774"/><g transform="translate(891 786)"><path d="m0 0h24v24h-24z" fill="none"/><path d="m5 10h5v-5h-5zm7.5 15h5v-5h-5zm-7.5 0h5v-5h-5zm0-7.5h5v-5h-5zm7.5 0h5v-5h-5zm7.5-12.5v5h5v-5zm-7.5 5h5v-5h-5zm7.5 7.5h5v-5h-5zm0 7.5h5v-5h-5z" fill="#6a6e79" transform="translate(-3 -3)"/></g><rect fill="#d7d7da" height="48" opacity="0" rx="2" width="48" x="879" y="712"/><g transform="translate(891 724)"><path d="m0 0h24v24h-24z" fill="none"/><path d="m5 10h5v-5h-5zm7.5 15h5v-5h-5zm-7.5 0h5v-5h-5zm0-7.5h5v-5h-5zm7.5 0h5v-5h-5zm7.5-12.5v5h5v-5zm-7.5 5h5v-5h-5zm7.5 7.5h5v-5h-5zm0 7.5h5v-5h-5z" transform="translate(-3 -3)"/></g><rect fill="#d7d7da" height="48" opacity="0" rx="2" width="48" x="642" y="836"/><g transform="translate(654 848)"><path d="m0 0h24v24h-24z" fill="none"/><path d="m3 18h18v-2h-18zm0-5h18v-2h-18zm0-7v2h18v-2z" fill="#fff"/></g><rect fill="#d7d7da" height="48" opacity="0" rx="2" width="48" x="642" y="774"/><g transform="translate(654 786)"><path d="m0 0h24v24h-24z" fill="none"/><path d="m3 18h18v-2h-18zm0-5h18v-2h-18zm0-7v2h18v-2z" fill="#6a6e79"/></g><rect fill="#d7d7da" height="48" opacity="0" rx="2" width="48" x="642" y="712"/><g transform="translate(654.25 723.618)"><path d="m0 0h24v24h-24z" fill="none"/><path d="m3 18h18v-2h-18zm0-5h18v-2h-18zm0-7v2h18v-2z" fill="#363545"/></g><rect fill="#d7d7da" height="48" opacity="0" rx="2" width="48" x="702.558" y="836"/><path d="m714.558 848h24v24h-24z" fill="none"/><path d="m922.3-1402.421h-.908l-.316-.313a7.4 7.4 0 0 0 1.793-4.833 7.433 7.433 0 0 0 -7.433-7.433 7.432 7.432 0 0 0 -7.433 7.433 7.433 7.433 0 0 0 7.433 7.433 7.4 7.4 0 0 0 4.831-1.791l.315.313v.906l5.715 5.707 1.703-1.701-5.7-5.718zm-6.863 0a5.144 5.144 0 0 1 -5.146-5.146 5.145 5.145 0 0 1 5.146-5.146 5.146 5.146 0 0 1 5.146 5.146 5.145 5.145 0 0 1 -5.146 5.146z" fill="#fff" fill-rule="evenodd" transform="translate(-191.442 2265)"/><rect fill="#d7d7da" height="48" opacity="0" rx="2" width="48" x="702.558" y="774"/><path d="m714.558 786h24v24h-24z" fill="none"/><path d="m922.3-1402.421h-.908l-.316-.313a7.4 7.4 0 0 0 1.793-4.833 7.433 7.433 0 0 0 -7.433-7.433 7.432 7.432 0 0 0 -7.433 7.433 7.433 7.433 0 0 0 7.433 7.433 7.4 7.4 0 0 0 4.831-1.791l.315.313v.906l5.715 5.707 1.703-1.701-5.7-5.718zm-6.863 0a5.144 5.144 0 0 1 -5.146-5.146 5.145 5.145 0 0 1 5.146-5.146 5.146 5.146 0 0 1 5.146 5.146 5.145 5.145 0 0 1 -5.146 5.146z" fill="#6a6e79" fill-rule="evenodd" transform="translate(-191.442 2203)"/><rect fill="#d7d7da" height="48" opacity="0" rx="2" width="48" x="702.558" y="712"/><path d="m714.558 724h24v24h-24z" fill="none"/><path d="m922.3-1402.421h-.908l-.316-.313a7.4 7.4 0 0 0 1.793-4.833 7.433 7.433 0 0 0 -7.433-7.433 7.432 7.432 0 0 0 -7.433 7.433 7.433 7.433 0 0 0 7.433 7.433 7.4 7.4 0 0 0 4.831-1.791l.315.313v.906l5.715 5.707 1.703-1.701-5.7-5.718zm-6.863 0a5.144 5.144 0 0 1 -5.146-5.146 5.145 5.145 0 0 1 5.146-5.146 5.146 5.146 0 0 1 5.146 5.146 5.145 5.145 0 0 1 -5.146 5.146z" fill="#363545" fill-rule="evenodd" transform="translate(-191.442 2141)"/><g transform="translate(945 836)"><circle cx="24" cy="24" fill="#252a2e" opacity="0" r="24"/><circle cx="24" cy="24" fill="#fff" r="16"/><text fill="#004f83" font-family="OpenSans-Semibold, Open Sans" font-size="14" font-weight="600" transform="translate(15 29)"><tspan x="0" y="0">RP</tspan></text></g><g transform="translate(945.442 774)"><circle cx="24" cy="24" fill="#252a2e" opacity="0" r="24"/><circle cx="24" cy="24" fill="#6a6e79" r="16"/><text fill="#fff" font-family="OpenSans-Semibold, Open Sans" font-size="14" font-weight="600" transform="translate(15 29)"><tspan x="0" y="0">RP</tspan></text></g><g transform="translate(945.442 712)"><circle cx="24" cy="24" fill="#252a2e" opacity="0" r="24"/><circle cx="24" cy="24" fill="#252a2e" r="16"/><text fill="#fff" font-family="OpenSans-Semibold, Open Sans" font-size="14" font-weight="600" transform="translate(15 29)"><tspan x="0" y="0">RP</tspan></text></g><g font-family="OpenSans-Bold, Open Sans, helvetica, arial, sans-serif" font-size="12" font-weight="700" letter-spacing="0em"><text transform="translate(530 742)"><tspan x="0" y="0">TRIMBLE GRAY</tspan></text><text transform="translate(530 803)"><tspan x="0" y="0">GRAY (GRAY 6)</tspan></text><text transform="translate(530 864)"><tspan x="0" y="0">REVERSED</tspan></text></g></g></svg>

<svg xmlns="http://www.w3.org/2000/svg" width="555" height="252" viewBox="0 0 555 252"><g id="navbar-btn-examples" transform="translate(-506 -672)"><g id="Rectangle_3461" fill="#f1f1f6" stroke="#cbcdd6" stroke-width="1" data-name="Rectangle 3461" transform="translate(506 672)"><rect width="555" height="252" stroke="none"/><rect width="554" height="251" x=".5" y=".5" fill="none"/></g><rect id="Rectangle_3455" width="383" height="56" fill="#004f83" data-name="Rectangle 3455" transform="translate(631 832)"/><rect id="Rectangle_3456" width="383" height="56" fill="#fff" data-name="Rectangle 3456" transform="translate(631 770)"/><rect id="Rectangle_3457" width="383" height="56" fill="#fff" data-name="Rectangle 3457" transform="translate(631 708)"/><g id="header-notification-btn-reversed" transform="translate(769 836)"><rect id="bg" width="48" height="48" fill="#d7d7da" opacity="0" rx="2"/><g id="Icon" transform="translate(10 10)"><path id="Path_955" fill="none" d="M0,0H28V28H0Z" data-name="Path 955"/><path id="notifications-24px" fill="#fff" d="M11.385,20.5a1.852,1.852,0,0,0,1.846-1.846H9.538A1.846,1.846,0,0,0,11.385,20.5Zm5.538-5.538V10.346c0-2.834-1.514-5.206-4.154-5.834V3.885a1.385,1.385,0,1,0-2.769,0v.628C7.351,5.14,5.846,7.5,5.846,10.346v4.615L4,16.808v.923H18.769v-.923Z" transform="translate(3 2.5)"/></g></g><g id="header-notification-btn" transform="translate(769 774)"><rect id="bg-2" width="48" height="48" fill="#d7d7da" data-name="bg" opacity="0" rx="2"/><g id="Icon-2" data-name="Icon" transform="translate(10 10)"><path id="Path_955-2" fill="none" d="M0,0H28V28H0Z" data-name="Path 955"/><path id="notifications-24px-2" fill="#6a6e79" d="M11.385,20.5a1.852,1.852,0,0,0,1.846-1.846H9.538A1.846,1.846,0,0,0,11.385,20.5Zm5.538-5.538V10.346c0-2.834-1.514-5.206-4.154-5.834V3.885a1.385,1.385,0,1,0-2.769,0v.628C7.351,5.14,5.846,7.5,5.846,10.346v4.615L4,16.808v.923H18.769v-.923Z" data-name="notifications-24px" transform="translate(3 2.5)"/></g></g><g id="header-notification-btn-2" data-name="header-notification-btn" transform="translate(769 712)"><rect id="bg-3" width="48" height="48" fill="#d7d7da" data-name="bg" opacity="0" rx="2"/><g id="Icon-3" data-name="Icon" transform="translate(10 10)"><path id="Path_955-3" fill="none" d="M0,0H28V28H0Z" data-name="Path 955"/><path id="notifications-24px-3" fill="#363545" d="M11.385,20.5a1.852,1.852,0,0,0,1.846-1.846H9.538A1.846,1.846,0,0,0,11.385,20.5Zm5.538-5.538V10.346c0-2.834-1.514-5.206-4.154-5.834V3.885a1.385,1.385,0,1,0-2.769,0v.628C7.351,5.14,5.846,7.5,5.846,10.346v4.615L4,16.808v.923H18.769v-.923Z" data-name="notifications-24px" transform="translate(3 2.5)"/></g></g><g id="header-help-btn-reversed" transform="translate(824 836)"><rect id="bg-4" width="48" height="48" fill="#d7d7da" data-name="bg" opacity="0" rx="2"/><g id="Icon-4" data-name="Icon" transform="translate(12 12)"><rect id="Rectangle_1690" width="24" height="24" fill="#252a2e" data-name="Rectangle 1690" opacity="0"/><g id="Help_icon" data-name="Help icon" transform="translate(1.667 2)"><path id="ic_help_24px" fill="#fff" d="M12,2A10,10,0,1,0,22,12,10,10,0,0,0,12,2Zm1,17H11V17h2Zm2.07-7.75-.9.92A3.4,3.4,0,0,0,13,15H11v-.5a4.025,4.025,0,0,1,1.17-2.83l1.24-1.26A1.955,1.955,0,0,0,14,9a2,2,0,1,0-4,0H8a4,4,0,1,1,8,0A3.182,3.182,0,0,1,15.07,11.25Z" transform="translate(-2 -2)"/></g></g></g><g id="header-help-btn-gray" transform="translate(822.872 774)"><rect id="bg-5" width="48" height="48" fill="#d7d7da" data-name="bg" opacity="0" rx="2"/><g id="Icon-5" data-name="Icon" transform="translate(12 12)"><rect id="Rectangle_1690-2" width="24" height="24" fill="#252a2e" data-name="Rectangle 1690" opacity="0"/><g id="Help_icon-2" data-name="Help icon" transform="translate(1.667 2)"><path id="ic_help_24px-2" fill="#6a6e79" d="M12,2A10,10,0,1,0,22,12,10,10,0,0,0,12,2Zm1,17H11V17h2Zm2.07-7.75-.9.92A3.4,3.4,0,0,0,13,15H11v-.5a4.025,4.025,0,0,1,1.17-2.83l1.24-1.26A1.955,1.955,0,0,0,14,9a2,2,0,1,0-4,0H8a4,4,0,1,1,8,0A3.182,3.182,0,0,1,15.07,11.25Z" data-name="ic_help_24px" transform="translate(-2 -2)"/></g></g></g><g id="header-help-btn" transform="translate(824 712)"><rect id="bg-6" width="48" height="48" fill="#d7d7da" data-name="bg" opacity="0" rx="2"/><g id="Icon-6" data-name="Icon" transform="translate(12 12)"><rect id="Rectangle_1690-3" width="24" height="24" fill="#363545" data-name="Rectangle 1690" opacity="0"/><g id="Help_icon-3" data-name="Help icon" transform="translate(1.667 2)"><path id="ic_help_24px-3" fill="#363545" d="M12,2A10,10,0,1,0,22,12,10,10,0,0,0,12,2Zm1,17H11V17h2Zm2.07-7.75-.9.92A3.4,3.4,0,0,0,13,15H11v-.5a4.025,4.025,0,0,1,1.17-2.83l1.24-1.26A1.955,1.955,0,0,0,14,9a2,2,0,1,0-4,0H8a4,4,0,1,1,8,0A3.182,3.182,0,0,1,15.07,11.25Z" data-name="ic_help_24px" transform="translate(-2 -2)"/></g></g></g><g id="header-appswitcher-btn-reversed" transform="translate(879 836)"><rect id="Bg-7" width="48" height="48" fill="#d7d7da" data-name="Bg" opacity="0" rx="2"/><g id="Web_Apps_Icon" data-name="Web Apps Icon" transform="translate(12 12)"><rect id="Rectangle_1690-4" width="24" height="24" fill="none" data-name="Rectangle 1690"/><path id="ic_apps_24px" fill="#fff" d="M5,10h5V5H5Zm7.5,15h5V20h-5ZM5,25h5V20H5Zm0-7.5h5v-5H5Zm7.5,0h5v-5h-5ZM20,5v5h5V5Zm-7.5,5h5V5h-5ZM20,17.5h5v-5H20ZM20,25h5V20H20Z" transform="translate(-3 -3)"/></g></g><g id="header-appswitcher-btn-gray" transform="translate(879 774)"><rect id="Bg-8" width="48" height="48" fill="#d7d7da" data-name="Bg" opacity="0" rx="2"/><g id="Web_Apps_Icon-2" data-name="Web Apps Icon" transform="translate(12 12)"><rect id="Rectangle_1690-5" width="24" height="24" fill="none" data-name="Rectangle 1690"/><path id="ic_apps_24px-2" fill="#6a6e79" d="M5,10h5V5H5Zm7.5,15h5V20h-5ZM5,25h5V20H5Zm0-7.5h5v-5H5Zm7.5,0h5v-5h-5ZM20,5v5h5V5Zm-7.5,5h5V5h-5ZM20,17.5h5v-5H20ZM20,25h5V20H20Z" data-name="ic_apps_24px" transform="translate(-3 -3)"/></g></g><g id="header-app-btn" transform="translate(879 712)"><rect id="Bg-9" width="48" height="48" fill="#d7d7da" data-name="Bg" opacity="0" rx="2"/><g id="Web_Apps_Icon-3" data-name="Web Apps Icon" transform="translate(12 12)"><rect id="Rectangle_1690-6" width="24" height="24" fill="none" data-name="Rectangle 1690"/><path id="ic_apps_24px-3" d="M5,10h5V5H5Zm7.5,15h5V20h-5ZM5,25h5V20H5Zm0-7.5h5v-5H5Zm7.5,0h5v-5h-5ZM20,5v5h5V5Zm-7.5,5h5V5h-5ZM20,17.5h5v-5H20ZM20,25h5V20H20Z" data-name="ic_apps_24px" transform="translate(-3 -3)"/></g></g><g id="header-menu-btn-reversed" transform="translate(642 836)"><rect id="BG-10" width="48" height="48" fill="#d7d7da" data-name="BG" opacity="0" rx="2"/><g id="Icon-7" data-name="Icon" transform="translate(12 12)"><path id="Path_1109" fill="none" d="M0,0H24V24H0Z" data-name="Path 1109"/><path id="Path_1110" fill="#fff" d="M3,18H21V16H3Zm0-5H21V11H3ZM3,6V8H21V6Z" data-name="Path 1110"/></g></g><g id="header-menu-btn-gray" transform="translate(642 774)"><rect id="BG-11" width="48" height="48" fill="#d7d7da" data-name="BG" opacity="0" rx="2"/><g id="Icon-8" data-name="Icon" transform="translate(12 12)"><path id="Path_1109-2" fill="none" d="M0,0H24V24H0Z" data-name="Path 1109"/><path id="Path_1110-2" fill="#6a6e79" d="M3,18H21V16H3Zm0-5H21V11H3ZM3,6V8H21V6Z" data-name="Path 1110"/></g></g><g id="header-menu-btn" transform="translate(642 712)"><rect id="BG-12" width="48" height="48" fill="#d7d7da" data-name="BG" opacity="0" rx="2"/><g id="Icon-9" data-name="Icon" transform="translate(12.25 11.618)"><path id="Path_1109-3" fill="none" d="M0,0H24V24H0Z" data-name="Path 1109"/><path id="Path_1110-3" fill="#363545" d="M3,18H21V16H3Zm0-5H21V11H3ZM3,6V8H21V6Z" data-name="Path 1110"/></g></g><g id="header-search-btn-reversed" transform="translate(702.558 836)"><rect id="bg-13" width="48" height="48" fill="#d7d7da" data-name="bg" opacity="0" rx="2"/><g id="Icon-10" data-name="Icon" transform="translate(11.362 11)"><rect id="Box" width="24" height="24" fill="none" transform="translate(0.638 1)"/><path id="Path_402" fill="#fff" fill-rule="evenodd" d="M922.3-1402.421h-.908l-.316-.313a7.4,7.4,0,0,0,1.793-4.833,7.433,7.433,0,0,0-7.433-7.433,7.432,7.432,0,0,0-7.433,7.433,7.433,7.433,0,0,0,7.433,7.433,7.4,7.4,0,0,0,4.831-1.791l.315.313v.906l5.715,5.707L928-1396.7l-5.7-5.718Zm-6.863,0a5.144,5.144,0,0,1-5.146-5.146,5.145,5.145,0,0,1,5.146-5.146,5.146,5.146,0,0,1,5.146,5.146,5.145,5.145,0,0,1-5.146,5.146Z" data-name="Path 402" transform="translate(-905.362 1418)"/></g></g><g id="header-search-btn-gray" transform="translate(702.558 774)"><rect id="bg-14" width="48" height="48" fill="#d7d7da" data-name="bg" opacity="0" rx="2"/><g id="Icon-11" data-name="Icon" transform="translate(11.362 11)"><rect id="Box-2" width="24" height="24" fill="none" data-name="Box" transform="translate(0.638 1)"/><path id="Path_402-2" fill="#6a6e79" fill-rule="evenodd" d="M922.3-1402.421h-.908l-.316-.313a7.4,7.4,0,0,0,1.793-4.833,7.433,7.433,0,0,0-7.433-7.433,7.432,7.432,0,0,0-7.433,7.433,7.433,7.433,0,0,0,7.433,7.433,7.4,7.4,0,0,0,4.831-1.791l.315.313v.906l5.715,5.707L928-1396.7l-5.7-5.718Zm-6.863,0a5.144,5.144,0,0,1-5.146-5.146,5.145,5.145,0,0,1,5.146-5.146,5.146,5.146,0,0,1,5.146,5.146,5.145,5.145,0,0,1-5.146,5.146Z" data-name="Path 402" transform="translate(-905.362 1418)"/></g></g><g id="header-search-btn" transform="translate(702.558 712)"><rect id="bg-15" width="48" height="48" fill="#d7d7da" data-name="bg" opacity="0" rx="2"/><g id="Icon-12" data-name="Icon" transform="translate(11.362 11)"><rect id="Box-3" width="24" height="24" fill="none" data-name="Box" transform="translate(0.638 1)"/><path id="Path_402-3" fill="#363545" fill-rule="evenodd" d="M922.3-1402.421h-.908l-.316-.313a7.4,7.4,0,0,0,1.793-4.833,7.433,7.433,0,0,0-7.433-7.433,7.432,7.432,0,0,0-7.433,7.433,7.433,7.433,0,0,0,7.433,7.433,7.4,7.4,0,0,0,4.831-1.791l.315.313v.906l5.715,5.707L928-1396.7l-5.7-5.718Zm-6.863,0a5.144,5.144,0,0,1-5.146-5.146,5.145,5.145,0,0,1,5.146-5.146,5.146,5.146,0,0,1,5.146,5.146,5.145,5.145,0,0,1-5.146,5.146Z" data-name="Path 402" transform="translate(-905.362 1418)"/></g></g><g id="header-profile-btn-reversed" transform="translate(945 836)"><circle id="Ellipse_273" cx="24" cy="24" r="24" fill="#252a2e" data-name="Ellipse 273" opacity="0"/><circle id="Ellipse_272" cx="16" cy="16" r="16" fill="#fff" data-name="Ellipse 272" transform="translate(8 8)"/><text id="RP" fill="#004f83" font-family="OpenSans-Semibold, Open Sans" font-size="14" font-weight="600" transform="translate(15 29)"><tspan x="0" y="0">RP</tspan></text></g><g id="profile-btn-gray" transform="translate(945.442 774)"><circle id="Ellipse_273-2" cx="24" cy="24" r="24" fill="#252a2e" data-name="Ellipse 273" opacity="0"/><circle id="Ellipse_272-2" cx="16" cy="16" r="16" fill="#6a6e79" data-name="Ellipse 272" transform="translate(8 8)"/><text id="RP-2" fill="#fff" data-name="RP" font-family="OpenSans-Semibold, Open Sans" font-size="14" font-weight="600" transform="translate(15 29)"><tspan x="0" y="0">RP</tspan></text></g><g id="profile-btn-dark" transform="translate(945.442 712)"><circle id="Ellipse_273-3" cx="24" cy="24" r="24" fill="#252a2e" data-name="Ellipse 273" opacity="0"/><circle id="Ellipse_272-3" cx="16" cy="16" r="16" fill="#252a2e" data-name="Ellipse 272" transform="translate(8 8)"/><text id="RP-3" fill="#fff" data-name="RP" font-family="OpenSans-Semibold, Open Sans" font-size="14" font-weight="600" transform="translate(15 29)"><tspan x="0" y="0">RP</tspan></text></g><text id="Trimble_Gray" data-name="Trimble Gray" font-family="OpenSans-Bold, Open Sans, helvetica, arial, sans-serif" font-size="12" font-weight="700" letter-spacing="0em" transform="translate(530 742)"><tspan x="0" y="0">TRIMBLE GRAY</tspan></text><text id="Gray_Gray_6_" data-name="Gray (Gray 6)" font-family="OpenSans-Bold, Open Sans, helvetica, arial, sans-serif" font-size="12" font-weight="700" letter-spacing="0em" transform="translate(530 803)"><tspan x="0" y="0">GRAY (GRAY 6)</tspan></text><text id="Reversed" font-family="OpenSans-Bold, Open Sans, helvetica, arial, sans-serif" font-size="12" font-weight="700" letter-spacing="0em" transform="translate(530 864)"><tspan x="0" y="0">REVERSED</tspan></text></g></svg>
